apps/64/acorn.svg

<svg xmlns="http://www.w3.org/2000/svg" style="isolation:isolate" width="256" height="256"><g filter="url(#a)"><linearGradient id="b" x1=".233" y1="-.071" x2=".933" y2=".924" gradientTransform="matrix(244.648 0 0 228.338 5.676 11.947)" gradientUnits="userSpaceOnUse"><stop offset="0%" stop-opacity=".996" stop-color="#c58d67"/><stop offset="100%" stop-opacity=".996" stop-color="#e6aa81"/></linearGradient><path d="M165.685 11.947c74.055 0 84.639 10.557 84.639 84.544v59.251c0 73.986-10.584 84.543-84.639 84.543h-75.37c-74.055 0-84.639-10.557-84.639-84.543V96.491c0-73.987 10.584-84.544 84.639-84.544h75.37z" fill="url(#b)"/></g><defs><filter id="a" x="-200%" y="-200%" width="400%" height="400%" filterUnits="objectBoundingBox" color-interpolation-filters="sRGB"><feGaussianBlur xmlns="http://www.w3.org/2000/svg" in="SourceGraphic" stdDeviation="4.294"/><feOffset xmlns="http://www.w3.org/2000/svg" dy="4" result="pf_100_offsetBlur"/><feFlood xmlns="http://www.w3.org/2000/svg" flood-color="#000" flood-opacity=".4"/><feComposite xmlns="http://www.w3.org/2000/svg" in2="pf_100_offsetBlur" operator="in" result="pf_100_dropShadow"/><feBlend xmlns="http://www.w3.org/2000/svg" in="SourceGraphic" in2="pf_100_dropShadow"/></filter></defs><path d="M87.22 11.83h81.549v228.338H87.22V11.83z" fill="#FFF" opacity=".1"/><path d="M5.676 126.116v29.626c0 73.986 10.584 84.543 84.639 84.543h75.37c74.055 0 84.639-10.557 84.639-84.543v-29.626H5.676z" fill="#FFF" opacity=".1"/><path d="M165.406 102.355c-13.803-23.964-47.109-33.952-71.818-21.538-17.354 8.558-28.024 26.014-34.656 43.478-4.761 12.601-7.698 26.688-4.151 40.007 4.359 10.354 15.467 15.276 25.506 18.52 20.031 6.353 42.767 7.21 62.419-1.294 24.016-11.544 36.918-41.592 28.305-66.867-1.357-4.293-3.282-8.426-5.603-12.308l-.002.002z" fill="#A05A2C"/><path d="M55.224 164.863c12.465-39.47 30.324-67.769 53.552-84.922 3.274 1.239 5.571 3.431 6.866 6.548-21.133 14.087-41.263 40.22-60.418 78.374zm1.162 2.641c23.121-35.18 45.627-58.866 67.495-71.086 3.556 1.937 5.219 4.093 4.964 6.443-23.513 13.101-47.657 34.657-72.459 64.643zm1.057 1.584c28.84-27.699 53.635-48.252 74.359-61.685 3.24.81 4.375 2.544 3.38 5.176-17.338 16.153-43.243 34.998-77.739 56.509zm1.795 2.218c37.145-22.337 64.448-38.657 81.859-49.01 2.888 1.373 3.952 3.53 3.169 6.443-11.664 11.898-39.99 26.104-85.028 42.567zm2.007 1.901c43.874-13.489 73.493-24.571 88.831-33.271l2.746 7.499c-16.069 8.449-46.586 17.048-91.577 25.772zm1.796 1.268c42.401-5.017 73.217-11.276 92.421-18.801 1.514 2.112 1.981 4.233 1.374 6.337-19.043 9.506-50.299 13.669-93.795 12.464z" fill="#C87C49"/><path d="M126.778 76.341c3.759 2.034 7.254 4.562 10.345 7.593 3.022 2.868 5.747 6.053 8.016 9.526 13.913 20.29 9.922 50.158-8.524 66.362-15.328 12.421-35.72 17.294-55.071 16.625-7.838-.313-16.559-1.419-23.019-6.097 5.42 6.373 13.906 9.942 21.749 12.477 20.031 6.353 42.771 7.205 62.423-1.299 24.017-11.544 36.925-41.594 28.311-66.867-1.356-4.294-3.282-8.425-5.602-12.307-8.076-14.02-22.828-23.246-38.628-26.011v-.002z" fill-opacity=".314"/><path d="M167.176 97.735c6.806-10.567 28.428-16.229 32.908-10.703 4.481 5.526 2.346 15.24.984 16.394-1.361 1.155-10.226-5.896-17.954-2.356s-12.089 7.164-12.089 7.164l-3.849-10.499z" fill-rule="evenodd" fill="#502D16"/><path d="M202.565 93.078c-.217 1.298-.674 2.3-1.115 2.611-1.275.901-10.578-2.818-18.022.311-7.445 3.128-11.531 5.956-11.531 5.956l-3.81-5.462c-.32.409-.644.816-.918 1.242l3.853 10.5s4.367-3.63 12.095-7.169c0 0 16.591 3.511 17.952 2.357.935-.793 2.221-5.611 1.496-10.345v-.001z" fill-rule="evenodd" fill-opacity=".314"/><path d="M171.48 98.959c-13.604-23.339-43.029-36.337-68.304-28.35-5.604 1.378-5.926 8.544-5.853 8.443 9.885-4.267 16.436 5.116 25.417 16.089 10.983 13.421 21.921 32.418 28.998 49.936 4.952 12.26 7.775 23.752 1.504 29.57.208.131 6.119 3.655 10.628-1.525 22.148-23.849 20.962-52.786 7.609-74.166l.001.003z" fill="#502D16"/><path d="M170.572 96.524c1.785 16.837-2.841 31.069-14.014 43-2.535 2.706-4.857.987-7.031.352.76 1.725 1.494 3.46 2.202 5.207 4.952 12.261 7.781 23.75 1.51 29.568.207.131 6.117 3.655 10.627-1.525 20.286-21.844 21.781-51.146 6.706-76.604v.002z" fill-opacity=".314"/><g opacity=".4"><linearGradient id="c" x1=".517" x2=".517" y2="1" gradientTransform="matrix(244.65 0 0 228.34 5.68 11.95)" gradientUnits="userSpaceOnUse"><stop offset="0%" stop-color="#fff"/><stop offset="12.5%" stop-opacity=".098" stop-color="#fff"/><stop offset="92.5%" stop-opacity=".098"/><stop offset="100%" stop-opacity=".498"/></linearGradient><path d="M165.068 11.951c4.328-.01 8.656.04 12.984.138 3.875.078 7.75.226 11.626.452 3.453.196 6.905.481 10.348.854 3.06.335 6.118.786 9.148 1.346a80.47 80.47 0 0 1 8.046 1.916 53.64 53.64 0 0 1 7.023 2.584 40.413 40.413 0 0 1 6.06 3.35 35.176 35.176 0 0 1 5.134 4.215 35.072 35.072 0 0 1 4.22 5.119 41.692 41.692 0 0 1 3.363 6.042 55.982 55.982 0 0 1 2.597 7.005 80.224 80.224 0 0 1 1.918 8.037 124.43 124.43 0 0 1 1.348 9.127c.374 3.439.659 6.878.856 10.326.226 3.861.373 7.732.462 11.593.088 4.323.138 8.646.128 12.96v58.21c.01 4.324-.04 8.637-.128 12.96a325.177 325.177 0 0 1-.462 11.593 200.984 200.984 0 0 1-.856 10.326 124.691 124.691 0 0 1-1.348 9.137 80.687 80.687 0 0 1-1.918 8.027 55.414 55.414 0 0 1-2.597 7.005 41.18 41.18 0 0 1-3.364 6.042 34.559 34.559 0 0 1-4.22 5.119 35.177 35.177 0 0 1-5.134 4.215 40.412 40.412 0 0 1-6.059 3.35 55.138 55.138 0 0 1-7.023 2.594 77.806 77.806 0 0 1-8.046 1.906 120 120 0 0 1-9.148 1.346c-3.443.373-6.895.658-10.348.854-3.875.226-7.75.374-11.626.462-4.328.088-8.656.138-12.984.128H90.942c-4.328.01-8.656-.04-12.984-.128a328.387 328.387 0 0 1-11.626-.462 203.003 203.003 0 0 1-10.348-.854 120 120 0 0 1-9.148-1.346 77.806 77.806 0 0 1-8.046-1.906 55.139 55.139 0 0 1-7.023-2.594 40.413 40.413 0 0 1-6.06-3.35 35.176 35.176 0 0 1-5.134-4.215 34.56 34.56 0 0 1-4.22-5.119 41.183 41.183 0 0 1-3.363-6.042 55.415 55.415 0 0 1-2.597-7.005 80.682 80.682 0 0 1-1.918-8.027 124.688 124.688 0 0 1-1.348-9.137 200.993 200.993 0 0 1-.856-10.326 325.212 325.212 0 0 1-.462-11.593 569.197 569.197 0 0 1-.128-12.96v-58.21c-.01-4.314.04-8.637.128-12.96.089-3.86.236-7.732.462-11.593.197-3.448.482-6.887.856-10.326.335-3.055.787-6.101 1.348-9.127a80.219 80.219 0 0 1 1.918-8.037 55.983 55.983 0 0 1 2.597-7.005 41.695 41.695 0 0 1 3.364-6.042 35.072 35.072 0 0 1 4.22-5.119 35.176 35.176 0 0 1 5.134-4.215 40.413 40.413 0 0 1 6.059-3.35 53.64 53.64 0 0 1 7.023-2.584 80.47 80.47 0 0 1 8.046-1.916 125.11 125.11 0 0 1 9.148-1.346c3.443-.373 6.895-.658 10.348-.854 3.875-.226 7.75-.374 11.626-.452 4.328-.098 8.656-.148 12.984-.138h74.126zm.01 4.009c4.298-.01 8.597.039 12.895.127 3.827.089 7.653.236 11.48.452 3.383.197 6.766.472 10.13.845 2.971.315 5.932.747 8.863 1.297a75.943 75.943 0 0 1 7.653 1.818 50.493 50.493 0 0 1 6.501 2.397 37.038 37.038 0 0 1 5.47 3.026 30.383 30.383 0 0 1 4.524 3.724 31.05 31.05 0 0 1 3.738 4.519 37.271 37.271 0 0 1 3.03 5.443 51.46 51.46 0 0 1 2.4 6.494 75.563 75.563 0 0 1 1.829 7.634c.54 2.928.974 5.875 1.298 8.842.374 3.36.65 6.73.846 10.11.217 3.822.374 7.634.453 11.456.088 4.293.137 8.577.137 12.87v58.212c0 4.293-.049 8.577-.137 12.87a317.503 317.503 0 0 1-.453 11.456c-.196 3.38-.472 6.75-.846 10.12a121.689 121.689 0 0 1-1.298 8.832 75.562 75.562 0 0 1-1.83 7.634 50.902 50.902 0 0 1-2.4 6.494 36.767 36.767 0 0 1-3.03 5.443 30.615 30.615 0 0 1-3.737 4.53 30.938 30.938 0 0 1-4.525 3.713 37.038 37.038 0 0 1-5.469 3.026 49.07 49.07 0 0 1-6.501 2.397 75.942 75.942 0 0 1-7.653 1.818c-2.931.55-5.892.982-8.863 1.306-3.364.364-6.747.649-10.13.836-3.827.216-7.653.373-11.48.452-4.298.098-8.597.137-12.895.137H90.932c-4.298 0-8.597-.04-12.895-.137a320.093 320.093 0 0 1-11.48-.452 193.696 193.696 0 0 1-10.13-.836 116.71 116.71 0 0 1-8.863-1.306 75.942 75.942 0 0 1-7.653-1.818 49.07 49.07 0 0 1-6.501-2.397 37.038 37.038 0 0 1-5.47-3.026 30.938 30.938 0 0 1-4.524-3.714 30.615 30.615 0 0 1-3.738-4.529 36.766 36.766 0 0 1-3.03-5.443 50.903 50.903 0 0 1-2.4-6.494 75.567 75.567 0 0 1-1.829-7.634 121.69 121.69 0 0 1-1.298-8.832c-.374-3.37-.65-6.74-.846-10.12a317.535 317.535 0 0 1-.453-11.456 623.851 623.851 0 0 1-.137-12.87V97.014c0-4.293.049-8.577.137-12.87.079-3.822.236-7.634.453-11.456.197-3.38.472-6.75.846-10.11.324-2.967.757-5.914 1.298-8.842a75.568 75.568 0 0 1 1.83-7.634 51.46 51.46 0 0 1 2.4-6.494 37.27 37.27 0 0 1 3.03-5.443 31.05 31.05 0 0 1 3.737-4.52 30.384 30.384 0 0 1 4.525-3.723 37.039 37.039 0 0 1 5.469-3.026 50.494 50.494 0 0 1 6.501-2.397 75.943 75.943 0 0 1 7.653-1.818c2.931-.55 5.892-.982 8.863-1.297 3.364-.373 6.747-.648 10.13-.845a344.71 344.71 0 0 1 11.48-.452c4.298-.088 8.597-.137 12.895-.127H165.078z" fill-rule="evenodd" fill="url(#c)"/></g></svg>

<?xml version="1.0" standalone="no"?><!-- Generator: Gravit.io --><svg xmlns="http://www.w3.org/2000/svg" xmlns:xlink="http://www.w3.org/1999/xlink" style="isolation:isolate" viewBox="0 0 256 256" width="256" height="256"><g id="Group" filter="url(#WUVs8inxqiqfrvyj96qEGiIdbnChdfz7)"><linearGradient id="_lgradient_50" x1="0.23299999999999998" y1="-0.071" x2="0.9329999999999999" y2="0.8576661243909631" gradientTransform="matrix(244.648,0,0,228.338,5.676,11.947)" gradientUnits="userSpaceOnUse"><stop offset="0%" stop-opacity="0.996" style="stop-color:rgb(197,141,103)"/><stop offset="100%" stop-opacity="0.996" style="stop-color:rgb(230,170,129)"/></linearGradient><path d=" M 165.685 11.947 C 239.74 11.947 250.324 22.504 250.324 96.491 L 250.324 155.742 C 250.324 229.728 239.74 240.285 165.685 240.285 L 90.315 240.285 C 16.26 240.285 5.676 229.728 5.676 155.742 L 5.676 96.491 C 5.676 22.504 16.26 11.947 90.315 11.947 L 165.685 11.947 L 165.685 11.947 Z " id="Path" fill="url(#_lgradient_50)"/></g><defs><filter id="WUVs8inxqiqfrvyj96qEGiIdbnChdfz7" x="-200%" y="-200%" width="400%" height="400%" filterUnits="objectBoundingBox" color-interpolation-filters="sRGB"><feGaussianBlur xmlns="http://www.w3.org/2000/svg" in="SourceGraphic" stdDeviation="4.294"/><feOffset xmlns="http://www.w3.org/2000/svg" dx="0" dy="4" result="pf_100_offsetBlur"/><feFlood xmlns="http://www.w3.org/2000/svg" flood-color="#000000" flood-opacity="0.4"/><feComposite xmlns="http://www.w3.org/2000/svg" in2="pf_100_offsetBlur" operator="in" result="pf_100_dropShadow"/><feBlend xmlns="http://www.w3.org/2000/svg" in="SourceGraphic" in2="pf_100_dropShadow" mode="normal"/></filter></defs><path d=" M 165.406 102.355 C 151.603 78.391 118.297 68.403 93.588 80.817 C 76.234 89.375 65.564 106.831 58.932 124.295 C 54.171 136.896 51.234 150.983 54.781 164.302 C 59.14 174.656 70.248 179.578 80.287 182.822 C 100.318 189.175 123.054 190.032 142.706 181.528 C 166.722 169.984 179.624 139.936 171.011 114.661 C 169.654 110.368 167.729 106.235 165.408 102.353 L 165.406 102.355 L 165.406 102.355 Z " id="Path" fill="rgb(160,90,44)"/><path d=" M 55.224 164.863 C 67.689 125.393 85.548 97.094 108.776 79.941 C 112.05 81.18 114.347 83.372 115.642 86.489 C 94.509 100.576 74.379 126.709 55.224 164.863 Z  M 56.386 167.504 C 79.507 132.324 102.013 108.638 123.881 96.418 C 127.437 98.355 129.1 100.511 128.845 102.861 C 105.332 115.962 81.188 137.518 56.386 167.504 Z  M 57.443 169.088 C 86.283 141.389 111.078 120.836 131.802 107.403 C 135.042 108.213 136.177 109.947 135.182 112.579 C 117.844 128.732 91.939 147.577 57.443 169.088 L 57.443 169.088 Z  M 59.238 171.306 C 96.383 148.969 123.686 132.649 141.097 122.296 C 143.985 123.669 145.049 125.826 144.266 128.739 C 132.602 140.637 104.276 154.843 59.238 171.306 L 59.238 171.306 Z  M 61.245 173.207 C 105.119 159.718 134.738 148.636 150.076 139.936 L 152.822 147.435 C 136.753 155.884 106.236 164.483 61.245 173.207 L 61.245 173.207 Z  M 63.041 174.475 C 105.442 169.458 136.258 163.199 155.462 155.674 C 156.976 157.786 157.443 159.907 156.836 162.011 C 137.793 171.517 106.537 175.68 63.041 174.475 L 63.041 174.475 Z " id="Compound Path" fill="rgb(200,124,73)"/><path d=" M 126.778 76.341 C 130.537 78.375 134.032 80.903 137.123 83.934 C 140.145 86.802 142.87 89.987 145.139 93.46 C 159.052 113.75 155.061 143.618 136.615 159.822 C 121.287 172.243 100.895 177.116 81.544 176.447 C 73.706 176.134 64.985 175.028 58.525 170.35 C 63.945 176.723 72.431 180.292 80.274 182.827 C 100.305 189.18 123.045 190.032 142.697 181.528 C 166.714 169.984 179.622 139.934 171.008 114.661 C 169.652 110.367 167.726 106.236 165.406 102.354 C 157.33 88.334 142.578 79.108 126.778 76.343 L 126.778 76.341 L 126.778 76.341 Z " id="Path" fill="rgb(0,0,0)" fill-opacity="0.314"/><path d=" M 167.176 97.735 C 173.982 87.168 195.604 81.506 200.084 87.032 C 204.565 92.558 202.43 102.272 201.068 103.426 C 199.707 104.581 190.842 97.53 183.114 101.07 C 175.386 104.61 171.025 108.234 171.025 108.234 L 167.176 97.735 L 167.176 97.735 Z " fill-rule="evenodd" id="Path" fill="rgb(80,45,22)"/><path d=" M 202.565 93.078 C 202.348 94.376 201.891 95.378 201.45 95.689 C 200.175 96.59 190.872 92.871 183.428 96 C 175.983 99.128 171.897 101.956 171.897 101.956 L 168.087 96.494 C 167.767 96.903 167.443 97.31 167.169 97.736 L 171.022 108.236 C 171.022 108.236 175.389 104.606 183.117 101.067 C 183.117 101.067 199.708 104.578 201.069 103.424 C 202.004 102.631 203.29 97.813 202.565 93.079 L 202.565 93.078 L 202.565 93.078 Z " fill-rule="evenodd" id="Path" fill="rgb(0,0,0)" fill-opacity="0.314"/><path d=" M 171.48 98.959 C 157.876 75.62 128.451 62.622 103.176 70.609 C 97.572 71.987 97.25 79.153 97.323 79.052 C 107.208 74.785 113.759 84.168 122.74 95.141 C 133.723 108.562 144.661 127.559 151.738 145.077 C 156.69 157.337 159.513 168.829 153.242 174.647 C 153.45 174.778 159.361 178.302 163.87 173.122 C 186.018 149.273 184.832 120.336 171.479 98.956 L 171.48 98.959 L 171.48 98.959 Z " id="Path" fill="rgb(80,45,22)"/><path d=" M 170.572 96.524 C 172.357 113.361 167.731 127.593 156.558 139.524 C 154.023 142.23 151.701 140.511 149.527 139.876 C 150.287 141.601 151.021 143.336 151.729 145.083 C 156.681 157.344 159.51 168.833 153.239 174.651 C 153.446 174.782 159.356 178.306 163.866 173.126 C 184.152 151.282 185.647 121.98 170.572 96.522 L 170.572 96.524 L 170.572 96.524 Z " id="Path" fill="rgb(0,0,0)" fill-opacity="0.314"/><g id="Group" style="opacity:0.4;"><g opacity="0.4"><linearGradient id="_lgradient_51" x1="0.5169999634453897" y1="0.0000011256553389474289" x2="0.5169999634453895" y2="0.9999988480691453" gradientTransform="matrix(244.651,0,0,228.341,5.68,11.95)" gradientUnits="userSpaceOnUse"><stop offset="0%" stop-opacity="1" style="stop-color:rgb(255,255,255)"/><stop offset="12.5%" stop-opacity="0.098" style="stop-color:rgb(255,255,255)"/><stop offset="92.499901888811%" stop-opacity="1" style="stop-color:rgb(0,0,0)"/><stop offset="99.99988480691454%" stop-opacity="1" style="stop-color:rgb(0,0,0)"/></linearGradient><path d=" M 165.068 11.951 C 169.396 11.941 173.724 11.991 178.052 12.089 C 181.927 12.167 185.802 12.315 189.678 12.541 C 193.131 12.737 196.583 13.022 200.026 13.395 C 203.086 13.73 206.144 14.181 209.174 14.741 C 211.887 15.241 214.573 15.881 217.22 16.657 C 219.618 17.354 221.965 18.217 224.243 19.241 C 226.355 20.182 228.383 21.303 230.303 22.591 C 232.143 23.831 233.862 25.242 235.437 26.806 C 237.002 28.375 238.415 30.089 239.657 31.925 C 240.943 33.842 242.068 35.863 243.02 37.967 C 244.041 40.242 244.908 42.582 245.617 44.972 C 246.394 47.616 247.034 50.299 247.535 53.009 C 248.097 56.034 248.547 59.078 248.883 62.136 C 249.257 65.575 249.542 69.014 249.739 72.462 C 249.965 76.323 250.112 80.194 250.201 84.055 C 250.289 88.378 250.339 92.701 250.329 97.015 L 250.329 155.225 C 250.339 159.549 250.289 163.862 250.201 168.185 C 250.116 172.052 249.962 175.917 249.739 179.778 C 249.542 183.227 249.257 186.67 248.883 190.104 C 248.547 193.165 248.097 196.213 247.535 199.241 C 247.033 201.948 246.393 204.627 245.617 207.268 C 244.91 209.659 244.042 211.999 243.02 214.273 C 242.07 216.378 240.945 218.399 239.656 220.315 C 238.417 222.153 237.004 223.867 235.436 225.434 C 233.861 226.998 232.142 228.409 230.302 229.649 C 228.382 230.937 226.355 232.058 224.243 232.999 C 221.963 234.022 219.617 234.888 217.22 235.593 C 214.574 236.37 211.888 237.007 209.174 237.499 C 206.143 238.065 203.091 238.514 200.026 238.845 C 196.583 239.218 193.131 239.503 189.678 239.699 C 185.803 239.925 181.928 240.073 178.052 240.161 C 173.724 240.249 169.396 240.299 165.068 240.289 L 90.942 240.289 C 86.614 240.299 82.286 240.249 77.958 240.161 C 74.08 240.076 70.204 239.922 66.332 239.699 C 62.876 239.503 59.425 239.218 55.984 238.845 C 52.919 238.514 49.867 238.065 46.836 237.499 C 44.122 237.007 41.436 236.37 38.79 235.593 C 36.393 234.888 34.047 234.022 31.767 232.999 C 29.655 232.058 27.627 230.937 25.707 229.649 C 23.867 228.409 22.148 226.998 20.573 225.434 C 19.005 223.867 17.592 222.153 16.353 220.315 C 15.065 218.399 13.94 216.378 12.99 214.273 C 11.968 211.999 11.1 209.659 10.393 207.268 C 9.617 204.627 8.977 201.948 8.475 199.241 C 7.913 196.213 7.463 193.165 7.127 190.104 C 6.753 186.67 6.468 183.227 6.271 179.778 C 6.048 175.917 5.894 172.052 5.809 168.185 C 5.717 163.866 5.674 159.545 5.681 155.225 L 5.681 97.015 C 5.671 92.701 5.721 88.378 5.809 84.055 C 5.898 80.195 6.045 76.323 6.271 72.462 C 6.468 69.014 6.753 65.575 7.127 62.136 C 7.462 59.081 7.914 56.035 8.475 53.009 C 8.976 50.299 9.616 47.616 10.393 44.972 C 11.102 42.582 11.969 40.242 12.99 37.967 C 13.942 35.863 15.067 33.842 16.354 31.925 C 17.596 30.089 19.009 28.375 20.574 26.806 C 22.149 25.242 23.868 23.831 25.708 22.591 C 27.628 21.303 29.655 20.182 31.767 19.241 C 34.045 18.217 36.392 17.354 38.79 16.657 C 41.437 15.881 44.123 15.241 46.836 14.741 C 49.868 14.18 52.919 13.731 55.984 13.395 C 59.427 13.022 62.879 12.737 66.332 12.541 C 70.207 12.315 74.082 12.167 77.958 12.089 C 82.286 11.991 86.614 11.941 90.942 11.951 L 165.068 11.951 L 165.068 11.951 Z  M 165.078 15.96 C 169.376 15.95 173.675 15.999 177.973 16.087 C 181.8 16.176 185.626 16.323 189.453 16.539 C 192.836 16.736 196.219 17.011 199.583 17.384 C 202.554 17.699 205.515 18.131 208.446 18.681 C 211.027 19.154 213.581 19.761 216.099 20.499 C 218.318 21.148 220.49 21.949 222.6 22.896 C 224.505 23.749 226.335 24.761 228.07 25.922 C 229.694 27.015 231.21 28.262 232.594 29.646 C 233.98 31.031 235.231 32.544 236.332 34.165 C 237.492 35.892 238.506 37.712 239.362 39.608 C 240.307 41.716 241.109 43.886 241.762 46.102 C 242.504 48.613 243.114 51.161 243.591 53.736 C 244.131 56.664 244.565 59.611 244.889 62.578 C 245.263 65.938 245.539 69.308 245.735 72.688 C 245.952 76.51 246.109 80.322 246.188 84.144 C 246.276 88.437 246.325 92.721 246.325 97.014 L 246.325 155.226 C 246.325 159.519 246.276 163.803 246.188 168.096 C 246.106 171.917 245.955 175.736 245.735 179.552 C 245.539 182.932 245.263 186.302 244.889 189.672 C 244.564 192.631 244.132 195.577 243.591 198.504 C 243.114 201.079 242.503 203.627 241.761 206.138 C 241.109 208.355 240.307 210.524 239.361 212.632 C 238.507 214.529 237.493 216.35 236.331 218.075 C 235.233 219.701 233.982 221.218 232.594 222.605 C 231.206 223.983 229.691 225.226 228.069 226.318 C 226.335 227.479 224.505 228.491 222.6 229.344 C 220.492 230.295 218.32 231.096 216.099 231.741 C 213.581 232.479 211.027 233.086 208.446 233.559 C 205.515 234.109 202.554 234.541 199.583 234.865 C 196.219 235.229 192.836 235.514 189.453 235.701 C 185.626 235.917 181.8 236.074 177.973 236.153 C 173.675 236.251 169.376 236.29 165.078 236.29 L 90.932 236.29 C 86.634 236.29 82.335 236.25 78.037 236.153 C 74.208 236.071 70.381 235.92 66.557 235.701 C 63.174 235.511 59.796 235.232 56.427 234.865 C 53.457 234.543 50.501 234.108 47.564 233.559 C 44.983 233.086 42.429 232.479 39.911 231.741 C 37.69 231.096 35.518 230.295 33.41 229.344 C 31.505 228.491 29.675 227.479 27.94 226.318 C 26.318 225.226 24.803 223.982 23.416 222.604 C 22.028 221.218 20.776 219.701 19.678 218.075 C 18.516 216.35 17.502 214.529 16.648 212.632 C 15.702 210.524 14.9 208.355 14.248 206.138 C 13.506 203.627 12.896 201.079 12.419 198.504 C 11.878 195.577 11.446 192.631 11.121 189.672 C 10.747 186.302 10.471 182.932 10.275 179.552 C 10.055 175.736 9.904 171.917 9.822 168.096 C 9.732 163.807 9.686 159.516 9.685 155.226 L 9.685 97.014 C 9.685 92.721 9.734 88.437 9.822 84.144 C 9.901 80.322 10.058 76.51 10.275 72.688 C 10.472 69.308 10.747 65.938 11.121 62.578 C 11.445 59.611 11.878 56.664 12.419 53.736 C 12.896 51.161 13.507 48.613 14.249 46.102 C 14.902 43.886 15.704 41.716 16.649 39.608 C 17.505 37.712 18.519 35.892 19.679 34.165 C 20.779 32.544 22.031 31.03 23.416 29.645 C 24.801 28.261 26.316 27.014 27.941 25.922 C 29.675 24.761 31.505 23.749 33.41 22.896 C 35.52 21.949 37.692 21.148 39.911 20.499 C 42.429 19.761 44.983 19.154 47.564 18.681 C 50.495 18.131 53.456 17.699 56.427 17.384 C 59.791 17.011 63.174 16.736 66.557 16.539 C 70.381 16.325 74.208 16.174 78.037 16.087 C 82.335 15.999 86.634 15.95 90.932 15.96 L 165.078 15.96 L 165.078 15.96 Z " fill-rule="evenodd" id="Compound Path" fill="url(#_lgradient_51)"/></g></g></svg>
